Sources/FrostedUI/Resources/Icons.xcassets/dollarCircle32.imageset/dollar-circle-32.svg

<svg width="32" height="32" viewBox="0 0 32 32" fill="none" xmlns="http://www.w3.org/2000/svg" data-fui-icon="true">
  <path
    d="M16 1C24.2843 1 31 7.71573 31 16C31 24.2843 24.2843 31 16 31C7.71573 31 1 24.2843 1 16C1 7.71573 7.71573 1 16 1ZM16 2.5C8.54416 2.5 2.5 8.54416 2.5 16C2.5 23.4558 8.54416 29.5 16 29.5C23.4558 29.5 29.5 23.4558 29.5 16C29.5 8.54416 23.4558 2.5 16 2.5ZM16.0117 6C16.4258 6.00013 16.7617 6.33587 16.7617 6.75V7.62207C20.303 7.8964 21.7082 10.1019 21.9805 11.377C22.0666 11.7817 21.8079 12.1809 21.4033 12.2676C20.9984 12.354 20.5994 12.0953 20.5127 11.6904C20.3772 11.056 19.5297 9.38678 16.7617 9.12891V15.376C17.8671 15.5848 19.0377 15.8453 19.9717 16.3574C20.5445 16.6716 21.0616 17.0961 21.4316 17.6855C21.8037 18.2785 21.9971 18.9901 21.9971 19.8262C21.9967 21.8505 20.179 24.0847 16.7617 24.3711V25.2471C16.7616 25.6611 16.4257 25.9969 16.0117 25.9971C15.5978 25.9968 15.2619 25.661 15.2617 25.2471V24.373C13.6297 24.2403 12.4527 23.6782 11.6211 22.9648C10.6805 22.1577 10.2347 21.2027 10.0381 20.6025C9.90925 20.2089 10.124 19.7851 10.5176 19.6562C10.9111 19.5277 11.335 19.7423 11.4639 20.1357C11.603 20.5603 11.924 21.2481 12.5977 21.8262C13.1548 22.3041 13.9926 22.7399 15.2617 22.8652V16.6191C14.1567 16.4104 12.9863 16.1514 12.0527 15.6396C11.4801 15.3255 10.9628 14.9016 10.5928 14.3125C10.2205 13.7196 10.0284 13.008 10.0283 12.1719C10.0283 10.1475 11.8464 7.91346 15.2617 7.62598V6.75C15.2617 6.33593 15.5977 6.00023 16.0117 6ZM16.7617 22.8652C19.4715 22.5969 20.4967 20.8857 20.4971 19.8262C20.4971 19.2277 20.3611 18.8022 20.1611 18.4834C19.959 18.1613 19.658 17.8967 19.25 17.6729C18.5899 17.311 17.7368 17.0952 16.7617 16.9023V22.8652ZM15.2617 9.13086C12.5529 9.40022 11.5283 11.1134 11.5283 12.1719C11.5284 12.7705 11.6631 13.1959 11.8633 13.5146C12.0655 13.8365 12.3664 14.1005 12.7744 14.3242C13.4343 14.6859 14.2871 14.9001 15.2617 15.0928V9.13086Z"
    fill="currentColor"
  />
</svg>

<svg xmlns="http://www.w3.org/2000/svg" width="32" height="32" fill="none" data-fui-icon="true" viewBox="0 0 32 32"><path fill="currentColor" d="M16 1c8.284 0 15 6.716 15 15s-6.716 15-15 15S1 24.284 1 16 7.716 1 16 1m0 1.5C8.544 2.5 2.5 8.544 2.5 16S8.544 29.5 16 29.5 29.5 23.456 29.5 16 23.456 2.5 16 2.5m.012 3.5a.75.75 0 0 1 .75.75v.872c3.541.274 4.946 2.48 5.218 3.755a.751.751 0 0 1-1.468.313c-.135-.634-.982-2.303-3.75-2.561v6.247c1.105.209 2.276.47 3.21.981.572.315 1.09.74 1.46 1.329.372.593.565 1.304.565 2.14 0 2.024-1.818 4.259-5.235 4.545v.876a.75.75 0 0 1-1.5 0v-.874c-1.632-.133-2.81-.695-3.64-1.408a5.33 5.33 0 0 1-1.584-2.363.75.75 0 0 1 1.426-.466c.139.424.46 1.112 1.134 1.69.557.478 1.395.914 2.664 1.04v-6.247c-1.105-.209-2.276-.468-3.21-.98-.572-.313-1.09-.737-1.46-1.326-.372-.593-.564-1.305-.564-2.141 0-2.024 1.818-4.259 5.234-4.546V6.75a.75.75 0 0 1 .75-.75m.75 16.865c2.71-.268 3.735-1.98 3.735-3.039 0-.598-.136-1.024-.336-1.343-.202-.322-.503-.586-.911-.81-.66-.362-1.513-.578-2.488-.77zm-1.5-13.734c-2.71.27-3.734 1.982-3.734 3.04 0 .6.135 1.025.335 1.344.203.321.503.585.911.81.66.36 1.513.575 2.488.768z"/></svg>
